X:83
T:Lady Calvert's Tarot
R:reel
C: 1999, 2010 L.E. McCullough  
M:4/4
L:1/8
K:D
A|:DEGA BABc|d~A3 gfed|e~A3 gfef|dBBA ~B3A|
DEGA BABc|d~a3 gfef|~g3b afga|1 gfec d3A:|[2 gfec d2cd|] 
|:eAgA fAef|eAef gfef|g~B3 gBaB|gfed ABcd|
eAgA fAef|eAef gfef|~g3b afga|1 gfec dcdf:|[2 gfec dBAF|]
<end>
<start>
